img/hero/links/bitcoin.svg

<svg width="20" height="20" viewBox="0 0 20 20" fill="none" xmlns="http://www.w3.org/2000/svg">
<path fill-rule="evenodd" clip-rule="evenodd" d="M10 0C4.47715 0 0 4.47715 0 10C0 15.5228 4.47715 20 10 20C15.5228 20 20 15.5228 20 10C20 4.47715 15.5228 0 10 0ZM12.2086 6.05237C13.5939 6.52956 14.607 7.24487 14.408 8.5755C14.2639 9.54956 13.7239 10.0211 13.007 10.1864C13.9914 10.6989 14.4923 11.4849 14.0151 12.8474C13.423 14.5396 12.0161 14.6824 10.1451 14.3283L9.69108 16.148L8.59389 15.8746L9.04202 14.0792C8.75764 14.0086 8.46702 13.9336 8.16764 13.8524L7.71796 15.6561L6.62202 15.3827L7.07608 13.5596C6.97373 13.5333 6.87073 13.5065 6.767 13.4794L6.76681 13.4794C6.61091 13.4387 6.45336 13.3976 6.29389 13.3577L4.86608 13.0017L5.41077 11.7458C5.41077 11.7458 6.21921 11.9608 6.20827 11.9449C6.51889 12.0217 6.65671 11.8192 6.71108 11.6842L7.42858 8.80769C7.45547 8.81415 7.4818 8.82075 7.5072 8.82712L7.50732 8.82715L7.54452 8.83644C7.50077 8.81894 7.46108 8.80769 7.43046 8.79987L7.94233 6.74644C7.95577 6.51331 7.87546 6.21925 7.43108 6.10831C7.44827 6.09675 6.63421 5.91019 6.63421 5.91019L6.92608 4.73831L8.43921 5.11612L8.43796 5.12175C8.66546 5.17831 8.89983 5.23206 9.13858 5.28644L9.58827 3.48456L10.6848 3.758L10.2442 5.52456C10.5386 5.59175 10.8348 5.65956 11.1233 5.73144L11.5608 3.97644L12.658 4.24987L12.2086 6.05237ZM8.73811 12.5876C9.63337 12.824 11.59 13.3408 11.9011 12.0908C12.2198 10.8127 10.3222 10.3869 9.39627 10.1791L9.39622 10.1791L9.39604 10.1791C9.29266 10.1559 9.20141 10.1354 9.12671 10.1167L8.52421 12.5321C8.58545 12.5473 8.65721 12.5662 8.73752 12.5874L8.73797 12.5875L8.73811 12.5876ZM12.2405 8.55581C11.9569 9.69194 10.3287 9.25744 9.58231 9.05825C9.51448 9.04014 9.45393 9.02398 9.40233 9.01112L9.94858 6.8205C10.0112 6.83611 10.0879 6.85309 10.1748 6.87233C10.9476 7.04341 12.5301 7.39372 12.2405 8.55581Z" fill="white"/>
</svg>

<svg width="20" height="20" fill="none" xmlns="http://www.w3.org/2000/svg"><path fill-rule="evenodd" clip-rule="evenodd" d="M10 0C4.477 0 0 4.477 0 10s4.477 10 10 10 10-4.477 10-10S15.523 0 10 0Zm2.209 6.052c1.385.478 2.398 1.193 2.199 2.524-.144.974-.684 1.445-1.401 1.61.984.513 1.485 1.299 1.008 2.661-.592 1.693-1.999 1.835-3.87 1.481l-.454 1.82-1.097-.273.448-1.796c-.284-.07-.575-.145-.874-.227l-.45 1.804-1.096-.273.454-1.823a47.755 47.755 0 0 0-.782-.202l-1.428-.356.545-1.256s.808.215.797.199c.31.077.449-.126.503-.26l.718-2.877.078.02.038.008A.91.91 0 0 0 7.43 8.8l.512-2.054c.014-.233-.067-.527-.51-.638.016-.011-.798-.198-.798-.198l.292-1.172 1.513.378-.001.006c.227.056.462.11.7.164l.45-1.801 1.097.273-.44 1.767c.294.067.59.135.878.206l.438-1.755 1.097.274-.45 1.802Zm-3.47 6.536c.894.236 2.851.753 3.162-.497.319-1.278-1.579-1.704-2.505-1.912a12.119 12.119 0 0 1-.27-.062l-.602 2.415.214.055Zm3.502-4.032c-.284 1.136-1.912.701-2.659.502a11.871 11.871 0 0 0-.18-.047l.547-2.19.226.051c.773.171 2.355.522 2.066 1.684Z" fill="#fff"/></svg>
